X:1
T:Onward, Christian Soldiers
T:Onward, Christian Soldiers
T:Arthur Seymour Sullivan, 1871
T:Sabine Baring-Gould, 1864
T:Public Domain Courtesy of the Cyber Hymnal™
T:Public Domain Courtesy of the Cyber Hymnal™
C:Arthur Seymour Sullivan, 1871
Z:Public Domain
Z:Courtesy of the Cyber Hymnal™
%%score ( 1 2 ) ( 3 4 )
L:1/8
Q:1/4=113
M:4/4
K:Eb
V:1 treble 
V:2 treble 
V:3 bass 
V:4 bass 
V:1
 [GB]2 [GB]2 [GB]2 [GB]2 | (B3 c) [AB]4 | [DF]2 [DF]2 [CE]2 [DF]2 | [EG]8 | E2 [EG]2 [EB]2 [Ee]2 | %5
w: 1.~On- ward, Christ- ian|sol- * diers,|march- ing as to|war,|With the cross of|
w: 2.~At the sign of|tri- * umph|Sa- tan’s host doth|flee;|On then, Christ- ian|
w: 3.~Like a might- y|ar- * my|moves the Church of|God;|Bro- thers, we are|
w: 4.~On- ward then, ye|peo- * ple,|join our hap- py|throng,|Blend with ours your|
 [Fe]4 [Fd]4 | [Ec]2 [Ec]2 [EG]2 [E=A]2 | [DB]8 | [DF]2 [DF]2 [FB]2 [DF]2 | ([EG]3 [FA]) [EG]4 | %10
w: Je- sus|go- ing on be-|fore.|Christ, the roy- al|Mas- * ter,|
w: sol- diers,|on to vic- to-|ry!|Hell’s found- a- tions|qui- * ver|
w: tread- ing|where the saints have|trod.|We are not di-|vid- * ed,|
w: voic- es|in the tri- umph|song.|Glo- ry, laud and|hon- * or|
 [EB]2 [EB]2 [Ee]2 [EB]2 | [Ec]8 | [Ec]2 [EB]2 [EA]2 [EB]2 | (c2 B2) (A2 B2) | %14
w: leads a- gainst the|foe;|For- ward in- to|bat- * tle *|
w: at the shout of|praise;|Brot- hers, lift your|voic- * es, *|
w: all one bo- dy|we,|One in hope and|doc- * trine, *|
w: un- to Christ the|King,|This through count- less|ag- * es *|
 [Ec]2 [EB]2 [FA]2 [EG]2 | [DF]8 ||"^Refrain" [B,E]2 [B,E]2 [B,E]2 [B,E]2 | (E2 DC) (D2 E2) | %18
w: see His ban- ners|go!|||
w: loud your an- thems|raise.|On- ward, Christ- ian|sol- * * diers, *|
w: one in char- i-|ty.|||
w: men and an- gels|sing.|||
 [B,F]2 [B,F]2 [B,F]2 (EF) | [B,G]8 | [GB]2 [GB]2 [Ae]2 [Ad]2 | [Ge]4 [EB]4 | %22
w: ||||
w: march- ing as to *|war,|With the cross of|Je- sus|
w: ||||
w: ||||
 [EA]2 [EG]2 [DF]3 [B,E] x | [B,E]8 |] %24
w: ||
w: go- ing on be-|fore.|
w: ||
w: ||
V:2
 x8 | A4 x4 | x8 | x8 | E2 x6 | x8 | x8 | x8 | x8 | x8 | x8 | x8 | x8 | E4 E4 | x8 | x8 || x8 | %17
 B,4 B,4 | x6 B,2 | x8 | x8 | x8 | x9 | x8 |] %24
V:3
 E,2 [E,G,]2 [E,B,]2 [E,E]2 | [F,E]4 [B,,D]4 | [A,B,]2 [A,B,]2 [G,B,]2 [F,B,]2 | [E,B,]8 | %4
 [G,B,]2 [G,B,]2 [G,B,]2 [G,B,]2 | (A,3 B,) [F,B,]4 | [F,=A,]2 [F,A,]2 [F,B,]2 [F,C]2 | [B,,B,]8 | %8
 [B,,B,]2 [B,,B,]2 [D,B,]2 [B,,B,]2 | [E,B,]4 [E,B,]4 | [E,G,]2 [E,G,]2 [G,B,]2 [E,G,]2 | A,8 | %12
 A,2 [E,G,]2 [C,A,]2 [E,G,]2 | A,2 [E,G,]2 ([C,A,]2 [E,G,]2) | %14
 [A,,A,]2 [A,,G,]2 [A,,F,]2 [A,,F,]2 | [B,,B,]8 || [E,G,]2 [B,,G,]2 [E,G,]2 [B,,G,]2 | A,4 A,4 | %18
 [D,A,]2 [B,,A,]2 [D,A,]2 [B,,A,]2 | [E,G,]8 | [E,E]2 [E,E]2 [F,B,]2 [F,B,]2 | [G,B,]4 [G,,B,]4 | %22
 C3 (z B,) [B,,A,]3 [E,G,] | [E,G,]8 |] %24
V:4
 E,2 x6 | x8 | x8 | x8 | x8 | F,4 x4 | x8 | x8 | x8 | x8 | x8 | A,8 | A,2 x6 | A,2 x6 | x8 | x8 || %16
 x8 | (F,2 B,,2) (F,2 B,,2) | x8 | x8 | x8 | x8 | (A,,2 A,,2) x5 | x8 |] %24

